X:49
T:Marin congo
R:Marin congo
O:France
A:Languedoc
C:Trad.
M:2/4
L:1/8
Q:1/4=106
K:G
"G"GA BA/G/|"D"AA D2|"G"GA Bd|[1 d/c/B/A/ BG :|[2 d/c/B/A/ G2|:
"G"dd/c/ BB/c/|de d2|GA Bd|[1 d/c/B/A/ BG:|[2  d/c/B/A/ G2|]
<end>
<start>
